assets/static/svgs/currencies/icon-australian-dollar.svg

<svg width="1em" height="1em"  viewBox="0 0 24 24" fill="none" xmlns="http://www.w3.org/2000/svg">
<symbol id="item"
width="1em"
height="1em"
viewBox="0 0 24 24"
fill="none"
>
 <path d="M12 24C18.6274 24 24 18.6274 24 12C24 5.37258 18.6274 0 12 0C5.37258 0 0 5.37258 0 12C0 18.6274 5.37258 24 12 24Z" fill="#274DD4"/> <path d="M18.9 13.7002C18.9 12.1002 17.9 11.7002 16.2 11.2002C15.4 11.0002 15.2 10.8002 15.2 10.5002C15.2 10.1002 15.5 10.0002 16 10.0002C16.5 10.0002 17.1 10.2002 17.7 10.6002L18.8 9.2002C18.2 8.7002 17.4 8.3002 16.6 8.2002V6.7002H15.3V8.1002C13.9 8.3002 13.1 9.3002 13.1 10.5002C13.1 12.1002 14.3 12.6002 15.7 13.0002C16.6 13.3002 16.8 13.5002 16.8 13.8002C16.8 14.1002 16.5 14.3002 16.1 14.3002C15.5 14.3002 14.7 14.0002 14.1 13.4002L13 14.9002C13.7 15.6002 14.5 16.0002 15.4 16.2002V17.6002H16.7V16.2002C18 16.0002 18.9 15.1002 18.9 13.7002Z" fill="var(--color--bulma-100)"/> <path d="M13 16.1996H10.7L9.89995 14.2996H7.49995L6.79995 16.1996H4.69995L7.89995 7.59961H9.69995L13 16.1996ZM9.69995 12.7996L8.69995 9.89961L7.79995 12.7996H9.69995Z" fill="var(--color--bulma-100)"/> 
</symbol>
</svg>

<svg width="1em" height="1em"    viewBox="0 0 24 24" fill="none" xmlns="http://www.w3.org/2000/svg">
<symbol id="item"
width="1em"
height="1em"
viewBox="0 0 24 24"
fill="none"
>
<path d="M12 24c6.627 0 12-5.373 12-12S18.627 0 12 0 0 5.373 0 12s5.373 12 12 12Z" fill="#274DD4"/><path d="M18.9 13.7c0-1.6-1-2-2.7-2.5-.8-.2-1-.4-1-.7 0-.4.3-.5.8-.5s1.1.2 1.7.6l1.1-1.4c-.6-.5-1.4-.9-2.2-1V6.7h-1.3v1.4c-1.4.2-2.2 1.2-2.2 2.4 0 1.6 1.2 2.1 2.6 2.5.9.3 1.1.5 1.1.8 0 .3-.3.5-.7.5-.6 0-1.4-.3-2-.9L13 14.9c.7.7 1.5 1.1 2.4 1.3v1.4h1.3v-1.4c1.3-.2 2.2-1.1 2.2-2.5ZM13 16.2h-2.3l-.8-1.9H7.5l-.7 1.9H4.7l3.2-8.6h1.8l3.3 8.6Zm-3.3-3.4-1-2.9-.9 2.9h1.9Z" fill="var(--color--bulma-100)"/>
</symbol>
</svg>
